X:1
T:Title
%%score { ( 1 3 ) | ( 2 4 ) }
L:1/8
M:4/4
K:Bb
V:1 treble nm="Grand Piano"
V:3 treble 
V:2 bass 
V:4 bass 
V:1
 z4 z2[Q:1/4=100] [B,D][CE] | [DF]>[DF] [DF]>[DF] [DF]2 [_D=E]>[=DF] |[M:3/4] G>G G>G G2 | %3
[M:1/4] ^FG |[M:4/4] A>A A>A A>F GA | [DB]6 [DF][DF] | [Fd]>[Fd] [Fd]>[Fd] [^Fc]2 [Fc][Fc] | %7
 [GB]>[Ac] [GB]>[^FA] G2 FG | [=Ec]>[Ed] [Ec]>[DEB] [CFA]2 [B,EG]2 |[M:7/8] c-c-c- c- c3 | %10
[M:1/4] D[CE] |[M:4/4] [DF]4 [DB]2[K:bass][K:treble] z2 | [Gc]4 [EG]2 z2 | A>_A =A>G F2 e2 | %14
 [Fd]6[K:bass][K:treble] z2 | [Ff]4 z4 | %16
[M:17/16] [Gc]/-[Gc]/-[Gc]/-[Gc]/-[Gc]-<[Gc][EG]/-[EG]-<[EG] z/ z/ z |[M:5/4] F>=E F>B d3 c3 | %18
[M:9/8] B2- [EB]- [EB-]3 [DB]3 |] %19
V:2
 z4 z2 [B,,F,][B,,F,] | [B,,B,]>[B,,B,] [B,,B,]>[B,,B,] [B,,B,]2 [B,,B,]>[B,,B,] | %2
[M:3/4] [E,B,E]>[E,B,E] [E,B,E]>[E,B,E] [E,B,E]2 |[M:1/4] [E,A,E][E,B,E] | %4
[M:4/4] [F,E]>[F,E] [F,CE]>[F,CE] [F,CE]>[F,A,E] [F,B,E][F,CE] | [B,,B,]6 [B,,B,][B,,B,] | %6
 [B,,B,]>[B,,B,] [B,,B,]>[B,,B,] [D,A,]2 [D,D][D,D] | %7
 [D,D]>[D,D] [D,D]>[D,C] [E,B,]2 [E,A,E][E,B,E] | [C,B,]>[C,B,] [C,G,]>C, C,2 C,2 | %9
[M:7/8] [F,A,F]2 [C,B,]2 [F,A,]3 |[M:1/4] [B,,F,B,][B,,F,] | %11
[M:4/4] [B,,B,]>B,, B,,>B,, [B,,F,]2 [C,F,][D,B,] | [E,B,]>E, E,>E, E,>E, [E,CE][E,CE] | %13
 [F,E]>[F,E] [F,CE]>[F,B,E] [F,A,E]2 [F,A,F]2 | [B,,B,]>B,, D,>F, B,2 [B,,B,][C,A,] | %15
 [D,B,]>D, D,>D, [B,,B,]>[B,,B,] [C,A,][D,B,] |[M:17/16] [E,B,]>E,E,>E,E,E,3/2[=E,B,_D][E,B,D] | %17
[M:5/4] [F,B,D]>[^F,B,_D] [=F,B,=D]>[F,B,D] [F,B,F]3 [F,,A,E]3 |[M:9/8] z2 G,- G,3 F,3 |] %19
V:3
 x8 | x8 |[M:3/4] x6 |[M:1/4] x2 |[M:4/4] x8 | x8 | x8 | x8 | x8 |[M:7/8] z2 =E2 _E3 |[M:1/4] x2 | %11
[M:4/4] z z/ B,/ B,>B, z z/[K:bass] [B,,F,]/[K:treble] [EA][FB] | z z/ B,/ B,>B, B,>B, GG | x8 | %14
 z z/[K:bass] B,/ B,>B, z2[K:treble] [Fd][Fe] | z z/ B,/ B,>B, [Fd]2 [Fe][Fd] | %16
[M:17/16] z/ z B,<B,B,/B,B,3/2AG |[M:5/4] x10 |[M:9/8] .[B,D]3 z3 z3 |] %19
V:4
 x8 | x8 |[M:3/4] x6 |[M:1/4] x2 |[M:4/4] x8 | x8 | x8 | x8 | x8 |[M:7/8] x7 |[M:1/4] x2 | %11
[M:4/4] x8 | x8 | x8 | x8 | x8 |[M:17/16] x17/2 |[M:5/4] x10 |[M:9/8] B,,8- B,, |] %19

